X:37
T:La Gamba
T:Gagliarda La Gamba
M:6/8
L:1/4
K:F
^F F F | ^F2 ^F G2 G | A2 A B B B | A2 A G2 G | ^F2 z :|
|: ^F G A | B2 A2 G2 | ^F2 z :: ^F G A | B2 A G2 ^F | G G z :| "Fine" G6 |]
%
%
